X: 3
T: Fred's Favourite
R: reel
M: 4/4
L: 1/8
K: Amaj
| c2 cd edcA| B2Bc dcBc |A ~E3 F3B|A2GAFE E2|
| cE ~E2 cEAc| B2Bc dcBA |(3Bcd ec dcBd |cAAG A4:|
K: A min
|c2cB ABcA |BcBA G2 Bd | (3efg dB cBAG | EAAG A2 AB |
| c ~A3 ecAc| ~B3c dGBd | ~e2dB cBAG | EAAG A4:|
